src/assets/img/vacancies/mdi_picture_as_pdf.svg

<svg width="46" height="46" viewBox="0 0 46 46" fill="none" xmlns="http://www.w3.org/2000/svg">
<path d="M38.3333 3.83398H15.3333C13.2249 3.83398 11.4999 5.55898 11.4999 7.66732V30.6673C11.4999 32.7757 13.2249 34.5007 15.3333 34.5007H38.3333C40.4416 34.5007 42.1666 32.7757 42.1666 30.6673V7.66732C42.1666 5.55898 40.4416 3.83398 38.3333 3.83398ZM22.0416 18.209C22.0416 19.7998 20.7574 21.084 19.1666 21.084H17.2499V24.9173H14.3749V13.4173H19.1666C20.7574 13.4173 22.0416 14.7015 22.0416 16.2923V18.209ZM31.6249 22.0423C31.6249 23.6332 30.3408 24.9173 28.7499 24.9173H23.9583V13.4173H28.7499C30.3408 13.4173 31.6249 14.7015 31.6249 16.2923V22.0423ZM39.2916 16.2923H36.4166V18.209H39.2916V21.084H36.4166V24.9173H33.5416V13.4173H39.2916V16.2923ZM17.2499 18.209H19.1666V16.2923H17.2499V18.209ZM7.66659 11.5007H3.83325V38.334C3.83325 40.4423 5.55825 42.1673 7.66659 42.1673H34.4999V38.334H7.66659V11.5007ZM26.8333 22.0423H28.7499V16.2923H26.8333V22.0423Z" fill="white"/>
</svg>

<svg width="46" height="46" fill="none" xmlns="http://www.w3.org/2000/svg"><path d="M38.333 3.834h-23A3.845 3.845 0 0011.5 7.667v23a3.845 3.845 0 003.833 3.834h23a3.845 3.845 0 003.834-3.834v-23a3.845 3.845 0 00-3.834-3.833zM22.042 18.209a2.871 2.871 0 01-2.875 2.875H17.25v3.833h-2.875v-11.5h4.792a2.871 2.871 0 012.875 2.875v1.917zm9.583 3.833a2.871 2.871 0 01-2.875 2.875h-4.792v-11.5h4.792a2.871 2.871 0 012.875 2.875v5.75zm7.667-5.75h-2.875v1.917h2.875v2.875h-2.875v3.833h-2.875v-11.5h5.75v2.875zM17.25 18.21h1.917v-1.917H17.25v1.917zm-9.583-6.708H3.833v26.833a3.845 3.845 0 003.834 3.833H34.5v-3.833H7.667V11.501zm19.166 10.541h1.917v-5.75h-1.917v5.75z" fill="#fff"/></svg>
